packages/ui-icons/src/Basic/32/Pay-friend_32.svg

<svg xmlns="http://www.w3.org/2000/svg" viewBox="0 0 40 40"><path d="M11.93 16a6 6 0 1 0-6-6 6 6 0 0 0 6 6Zm0-10a4 4 0 1 1-4 4 4 4 0 0 1 4-4ZM18 36l.3-2.29A11 11 0 1 0 16 18.65a14.09 14.09 0 0 0-4.07-.65 14.43 14.43 0 0 0-7.4 2.17l-.53.34L5.86 36Zm7-20a9 9 0 1 1-9 9 9 9 0 0 1 9-9Zm-13.07 4a11.91 11.91 0 0 1 3.09.42A10.94 10.94 0 0 0 16.5 32l-.26 2H7.61L6.15 21.55A12.54 12.54 0 0 1 11.93 20ZM22 32h2v-2h4v-2h-4v-2h2a4 4 0 1 0 0-8h-4v6h-2v2h2v2h-2v2h2Zm2-12h2a2 2 0 1 1 0 4h-2Z"/></svg>

<svg id="Ready" xmlns="http://www.w3.org/2000/svg" viewBox="0 0 40 40"><title>Megaicons_work_32_1.8_cp</title><path d="M11.93,16a6,6,0,1,0-6-6A6,6,0,0,0,11.93,16Zm0-10a4,4,0,1,1-4,4A4,4,0,0,1,11.93,6ZM18,36l.3-2.29A11,11,0,1,0,16,18.65,14.09,14.09,0,0,0,11.93,18a14.43,14.43,0,0,0-7.4,2.17L4,20.51,5.86,36Zm7-20a9,9,0,1,1-9,9A9,9,0,0,1,25,16ZM11.93,20a11.91,11.91,0,0,1,3.09.42A10.94,10.94,0,0,0,16.5,32l-.26,2H7.61L6.15,21.55A12.54,12.54,0,0,1,11.93,20ZM22,32h2V30h4V28H24V26h2a4,4,0,1,0,0-8H22v6H20v2h2v2H20v2h2Zm2-12h2a2,2,0,1,1,0,4H24Z"/></svg>
